X: 49
T: Dusty Windowsill [The]
T: Austin Barret's
C: Johnny Harling (Chicago)
M: 6/8
L: 1/8
R: Jig
K: Ador
A2B cBA|eAB cBA|GFG EGG|DGG EFG|
A2B cBA|e2d efg|age dBG|ABA A3:|
a3 age|dBd g3|gag gfe|dBA GFG|
EGG DGG|EFG ABc|Bed BAG|ABA A3:|
A3 gAf|A3 ged|G3 edB|G3 edB|
A3 gAf|A3 efg|age dBG|ABA A3:|
